X:312
T:March,A. RH.312
R:march
S:Rev.R.Harrison’s MS,c1815,Cumbria
O:England
A:Temple Sowerby,Cumbria
Z:vmp.Simon Wilson. Review PJH, 2008.
M:C|
L:1/8
Q:1/2=60
K:G
D>D|G4B2d2|gf/g/ a/g/f/e/ d2Bd|\
d>cA>c BGdB|A2A>A A>DE>F|!
G4B2d2|c/d/e/f/ g/f/e/d/ c/d/e/f/ g/f/g/e/|\
fa/f/ f/g/f/e/d2c2|d2d>dd2:|!
|:d>d|d3g edcB|cfag fedc|\
Bdgf edcB|A2A>AA2D>D|!
G>GB>B d>dg>g|e>e a>a f>de>f|\
g(f/e/) (d/c/B/A/) G(A/B/) (c/d/e/f/)|g2g>gg2:|!
|:B>c|d4e4|(AGAB) (cBce)|\
dBgf edcB|B4ABcc|!
d4e4|(AGAB) (cBce)|\
edBd dcAF|A4G2:|

